gr/calculator.svg

<svg xmlns="http://www.w3.org/2000/svg" viewBox="0 0 24 24" height="1em" width="1em">
  <path fill="none" stroke="#000" stroke-width="2" d="M22 23H2V1h20v22Zm-6-6h2v2h-2v-2Zm-5 0h2v2h-2v-2Zm5-5h2v2h-2v-2Zm-5 0h2v2h-2v-2Zm-5 5h2v2H6v-2Zm0-5h2v2H6v-2Zm12-3H6V5h12v4Z"/>
</svg>

<svg xmlns="http://www.w3.org/2000/svg" viewBox="0 0 24 24" height="1em" width="1em">
  <path fill="none" stroke="#000" stroke-width="2" d="M22,23 L2,23 L2,1 L22,1 L22,23 Z M16,17 L18,17 L18,19 L16,19 L16,17 Z M11,17 L13,17 L13,19 L11,19 L11,17 Z M16,12 L18,12 L18,14 L16,14 L16,12 Z M11,12 L13,12 L13,14 L11,14 L11,12 Z M6,17 L8,17 L8,19 L6,19 L6,17 Z M6,12 L8,12 L8,14 L6,14 L6,12 Z M18,9 L6,9 L6,5 L18,5 L18,9 Z"/>
</svg>
